apps/16/audio-editor.svg

<?xml version="1.0" encoding="UTF-8"?>
<svg id="d" width="16" height="16" version="1.1" xmlns="http://www.w3.org/2000/svg" xmlns:cc="http://creativecommons.org/ns#" xmlns:dc="http://purl.org/dc/elements/1.1/" xmlns:rdf="http://www.w3.org/1999/02/22-rdf-syntax-ns#">
	<metadata id="a">
		<rdf:RDF>
			<cc:Work rdf:about="">
				<dc:format>image/svg+xml</dc:format>
				<dc:type rdf:resource="http://purl.org/dc/dcmitype/StillImage"/>
				<dc:title/>
			</cc:Work>
		</rdf:RDF>
	</metadata>
	<defs>
		<style id="current-color-scheme" type="text/css">.ColorScheme-Text {color:#090d11;}.ColorScheme-Background{color:#ffffff;}</style>
	</defs>
	<path id="e" d="m6 1v4h-1v2h-1v-3h-1v2h-1v1h-1v2h1v2h1v-2h1v4h1v-2h1v3h1v-2h1v-3h1v2h1v2h1v-3h1v2h1v-2h1v-1h1v-2h-1v-2h-1v2h-1v-2h-1v2h-1v-1h-1v-4h-1v2h-1v-3z" style="fill-opacity:.75;fill:currentColor" class="ColorScheme-Text"/>
	<path id="c" d="m5 4.147e-7v1 2h-1-1-1v1 1h-1v1h-1v1h1 1v-1h1v-2h1v3h1v-2h1v-4h1v3h1v-2h1v4h1v1h1v-2h1v2h1v-2h1v2h1 1v-1h-1v-1-1h-1-1-1-1-1v-2-1h-1-1v-1h-1-1zm-5 9v1h1v1 1h1 1v1 1h1 1v1h1 1 1v-1-1h1v1h1 1 1v-1h1 1v-1-1h1v-1h1v-1h-1-1v1h-1v2h-1v-2h-1v3h-1v-2h-1v-2h-1v3h-1v2h-1v-3h-1v2h-1v-4h-1v2h-1v-2h-1z" style="fill-opacity:.5;fill:currentColor" class="ColorScheme-Background"/>
</svg>

<?xml version="1.0" encoding="UTF-8" standalone="no"?>
<!-- Created with Inkscape (http://www.inkscape.org/) -->

<svg
   xmlns:dc="http://purl.org/dc/elements/1.1/"
   xmlns:cc="http://creativecommons.org/ns#"
   xmlns:rdf="http://www.w3.org/1999/02/22-rdf-syntax-ns#"
   xmlns:svg="http://www.w3.org/2000/svg"
   xmlns="http://www.w3.org/2000/svg"
   xmlns:sodipodi="http://sodipodi.sourceforge.net/DTD/sodipodi-0.dtd"
   xmlns:inkscape="http://www.inkscape.org/namespaces/inkscape"
   width="16.000042"
   height="16.000004"
   id="svg27665"
   version="1.1"
   inkscape:version="0.48.3.1 r9886"
   sodipodi:docname="audio-editor.svg">
  <defs
     id="defs27667">
    <inkscape:path-effect
       effect="skeletal"
       id="path-effect3797"
       is_visible="true"
       pattern="M 0,0.9999998 4.0000001,0 l 0,2 z"
       copytype="single_stretched"
       prop_scale="1.5"
       scale_y_rel="false"
       spacing="0"
       normal_offset="0"
       tang_offset="0"
       prop_units="false"
       vertical_pattern="false"
       fuse_tolerance="0" />
  </defs>
  <sodipodi:namedview
     id="base"
     pagecolor="#ffffff"
     bordercolor="#666666"
     borderopacity="1.0"
     inkscape:pageopacity="0.0"
     inkscape:pageshadow="2"
     inkscape:zoom="45.254832"
     inkscape:cx="6.5257922"
     inkscape:cy="8.3567163"
     inkscape:document-units="px"
     inkscape:current-layer="layer1"
     showgrid="true"
     inkscape:window-width="1920"
     inkscape:window-height="1023"
     inkscape:window-x="-10"
     inkscape:window-y="35"
     inkscape:window-maximized="1"
     inkscape:snap-bbox="true"
     inkscape:bbox-paths="true"
     inkscape:bbox-nodes="true"
     inkscape:snap-bbox-edge-midpoints="true"
     inkscape:snap-bbox-midpoints="true"
     inkscape:object-paths="true"
     inkscape:snap-intersection-paths="true"
     inkscape:object-nodes="true"
     inkscape:snap-smooth-nodes="true"
     inkscape:snap-midpoints="true"
     inkscape:snap-object-midpoints="true"
     inkscape:snap-center="true"
     inkscape:snap-global="true"
     showguides="false"
     inkscape:guide-bbox="true"
     fit-margin-top="0"
     fit-margin-left="0"
     fit-margin-right="0"
     fit-margin-bottom="0"
     inkscape:showpageshadow="false">
    <sodipodi:guide
       orientation="1,0"
       position="-3201.6232,-603.37575"
       id="guide4181" />
    <inkscape:grid
       type="xygrid"
       id="grid3296"
       empspacing="5"
       visible="true"
       enabled="true"
       snapvisiblegridlinesonly="true"
       originx="-1854.9999px"
       originy="-1853.0001px" />
    <sodipodi:guide
       orientation="1,0"
       position="-1342.9999,-1343"
       id="guide3432" />
    <sodipodi:guide
       orientation="1,0"
       position="-1854.9999,-1343"
       id="guide4416" />
    <sodipodi:guide
       orientation="0,1"
       position="-1854.9999,-1343"
       id="guide3391" />
    <sodipodi:guide
       orientation="0,1"
       position="-1564.9999,-1358"
       id="guide3393" />
    <sodipodi:guide
       orientation="0,1"
       position="-1529.9999,-1840.0001"
       id="guide3395" />
    <sodipodi:guide
       orientation="1,0"
       position="-1357.9999,-1600.0001"
       id="guide3397" />
    <sodipodi:guide
       orientation="1,0"
       position="-1839.9999,-1600.0001"
       id="guide3399" />
    <sodipodi:guide
       orientation="1,0"
       position="-1829.9999,-1600.0001"
       id="guide3401" />
    <sodipodi:guide
       orientation="1,0"
       position="-1367.9999,-1584.0001"
       id="guide3403" />
    <sodipodi:guide
       orientation="0,1"
       position="-1569.9999,-1368"
       id="guide3405" />
    <sodipodi:guide
       orientation="0,1"
       position="-1599.9999,-1830.0001"
       id="guide3407" />
    <sodipodi:guide
       orientation="1,0"
       position="-394.99996,-385.99995"
       id="guide3628" />
    <sodipodi:guide
       orientation="1,0"
       position="-346.99996,-382.99995"
       id="guide3630" />
    <sodipodi:guide
       orientation="0,1"
       position="-378.99996,-346.99995"
       id="guide3632" />
    <sodipodi:guide
       orientation="0,1"
       position="-376.99996,-394.99995"
       id="guide3634" />
    <sodipodi:guide
       orientation="0,1"
       position="-395.99996,-349.99995"
       id="guide3636" />
    <sodipodi:guide
       orientation="1,0"
       position="-349.99996,-344.99995"
       id="guide3638" />
    <sodipodi:guide
       orientation="0,1"
       position="-399.99996,-391.99995"
       id="guide3640" />
    <sodipodi:guide
       orientation="1,0"
       position="-391.99996,-344.99995"
       id="guide3642" />
  </sodipodi:namedview>
  <metadata
     id="metadata27670">
    <rdf:RDF>
      <cc:Work
         rdf:about="">
        <dc:format>image/svg+xml</dc:format>
        <dc:type
           rdf:resource="http://purl.org/dc/dcmitype/StillImage" />
        <dc:title />
      </cc:Work>
    </rdf:RDF>
  </metadata>
  <g
     inkscape:label="Camada 1"
     inkscape:groupmode="layer"
     id="layer1"
     transform="translate(1683.7081,-526.68635)">
    <g
       id="scalable"
       transform="matrix(0.77893781,0,0,0.77893781,-777.42115,1929.5381)"
       inkscape:label="#g3701" />
    <rect
       y="525.68646"
       x="-1666.2939"
       height="16.000002"
       width="16.000002"
       id="rect3129"
       style="opacity:0.00100002;fill:#ffffff;fill-opacity:1;fill-rule:nonzero;stroke:none" />
    <path
       id="path3054"
       d="m -1677.7081,527.68635 0,4 -1,0 0,2 -1,0 0,-3 -1,0 0,2 -1,0 0,1 -1,0 0,2 1,0 0,2 1,0 0,-2 1,0 0,4 1,0 0,-2 1,0 0,3 1,0 0,-2 1,0 0,-3 1,0 0,2 1,0 0,2 1,0 0,-3 1,0 0,2 1,0 0,-2 1,0 0,-1 1,0 0,-2 -1,0 0,-2 -1,0 0,2 -1,0 0,-2 -1,0 0,2 -1,0 0,-1 -1,0 0,-4 -1,0 0,2 -1,0 0,-3 -1,0 z"
       style="color:#000000;fill:#27303a;fill-opacity:0.753280819999999968;fill-rule:nonzero;stroke:none;stroke-width:57.8928833;marker:none;visibility:visible;display:inline;overflow:visible;enable-background:accumulate"
       inkscape:connector-curvature="0" />
    <path
       style="font-size:medium;font-style:normal;font-variant:normal;font-weight:normal;font-stretch:normal;text-indent:0;text-align:start;text-decoration:none;line-height:normal;letter-spacing:normal;word-spacing:normal;text-transform:none;direction:ltr;block-progression:tb;writing-mode:lr-tb;text-anchor:start;baseline-shift:baseline;color:#000000;fill:#f1f3f5;fill-opacity:0.90288714000000003;fill-rule:nonzero;stroke:none;stroke-width:2;marker:none;visibility:visible;display:inline;overflow:visible;enable-background:accumulate;font-family:Sans;-inkscape-font-specification:Sans"
       d="M 5 0 L 5 1 L 5 3 L 4 3 L 3 3 L 2 3 L 2 4 L 2 5 L 1 5 L 1 6 L 0 6 L 0 7 L 1 7 L 2 7 L 2 6 L 3 6 L 3 4 L 4 4 L 4 7 L 5 7 L 5 5 L 6 5 L 6 1 L 7 1 L 7 4 L 8 4 L 8 2 L 9 2 L 9 6 L 10 6 L 10 7 L 11 7 L 11 5 L 12 5 L 12 7 L 13 7 L 13 5 L 14 5 L 14 7 L 15 7 L 16 7 L 16 6 L 15 6 L 15 5 L 15 4 L 14 4 L 13 4 L 12 4 L 11 4 L 10 4 L 10 2 L 10 1 L 9 1 L 8 1 L 8 0 L 7 0 L 6 0 L 5 0 z M 0 9 L 0 10 L 1 10 L 1 11 L 1 12 L 2 12 L 3 12 L 3 13 L 3 14 L 4 14 L 5 14 L 5 15 L 6 15 L 7 15 L 8 15 L 8 14 L 8 13 L 9 13 L 9 14 L 10 14 L 11 14 L 12 14 L 12 13 L 13 13 L 14 13 L 14 12 L 14 11 L 15 11 L 15 10 L 16 10 L 16 9 L 15 9 L 14 9 L 14 10 L 13 10 L 13 12 L 12 12 L 12 10 L 11 10 L 11 13 L 10 13 L 10 11 L 9 11 L 9 9 L 8 9 L 8 12 L 7 12 L 7 14 L 6 14 L 6 11 L 5 11 L 5 13 L 4 13 L 4 9 L 3 9 L 3 11 L 2 11 L 2 9 L 1 9 L 0 9 z "
       transform="translate(-1683.7081,526.68635)"
       id="rect3027" />
  </g>
</svg>
